!!!COM: Haydn, Franz Joseph
!!!OTL: String Quartet in B-flat major
!!!OPS: Opus 1
!!!ONM: No. 1
!!!OMD: Presto
!!!OMV: 5
!!!SCT: H III:1
!!!SCA: Thematisch-bibliographisches Werkevererzeichnis (A. van Hoboken)
!!!YOR: Bremner Edition, 1772
!!!ENC: Frances Bennion
!!!CDT: 1732/3/31/-1809/5/31/
!!!CNT: Oesterreich
!!!YEC: Copyright (c) 1994, 2000 Center for Computer Assisted Research in the Humanities
!!!YEM: Rights to all derivative editions reserved.
!!!YEM: Refer to licensing agreement for further details.
!!!YEN: United States of America
**kern	**kern	**kern	**kern
*k[b-e-]	*k[b-e-]	*k[b-e-]	*k[b-e-]
*B-:	*B-:	*B-:	*B-:
*clefF4	*clefC3	*clefF	*clefF
*M2/4	*M2/4	*M2/4	*M2/4
8B-	8b-	4.dd	4.ff
8B-	8b-	.	.
8B-	8b-	.	.
8B-	8b-	24ee-	24gg
.	.	24dd	24ff
.	.	24cc	24ee-
=2	=2	=2	=2
8B-	8b-	4.b-	4.dd
8B-	8b-	.	.
8B-	8b-	.	.
8B-	8b-	24g	24ee-
.	.	24f	24dd
.	.	24e-	24cc
=3	=3	=3	=3
4B-	4b-	8d	8b-
.	.	8c	8a
4r	4r	8d	8b-
.	.	8e-	8cc
=4	=4	=4	=4
4B-	4b-	8f	8dd
.	.	8g	8ee-
4r	4r	8f	8dd
.	.	8e-	8cc
=5	=5	=5	=5
4B-	4b-	8d	8b-
.	.	8f	8a
4r	4r	8e-	8g
.	.	8d	8f
=6	=6	=6	=6
8F	8f	8c	8e-
8B-	8b-	8B-	8d
4r	4r	4r	4r
=7	=7	=7	=7
8B-	4.f	4.dd	2r
8B-	.	.	.
8B-	.	.	.
8B-	24g	24ee-	.
.	24f	24dd	.
.	24e-	24cc	.
=8	=8	=8	=8
4BB-	4d	4b-	16b-
.	.	.	16dd
.	.	.	16ff
.	.	.	16bb-
4r	4r	4r	16ddd
.	.	.	16bb-
.	.	.	16aa
.	.	.	16bb-
=9	=9	=9	=9
8F	4.a	4.cc	4ccc
8F	.	.	.
8F	.	.	4r
8F	24b-	24dd	.
.	24a	24cc	.
.	24g	24b-	.
=10	=10	=10	=10
4FF	4f	4a	16a
.	.	.	16cc
.	.	.	16ff
.	.	.	16aa
4r	4r	4r	16ccc
.	.	.	16aa
.	.	.	16gg
.	.	.	16aa
=11	=11	=11	=11
8C	4.g	4.b-	4bb-
8C	.	.	.
8C	.	.	4r
8C	24a	24cc	.
.	24g	24b-	.
.	24f	24a	.
=12	=12	=12	=12
4CC	4e	4g	16g
.	.	.	16b-
.	.	.	16ee
.	.	.	16gg
4r	4r	4r	16bb-
.	.	.	16gg
.	.	.	16ff
.	.	.	16gg
=13	=13	=13	=13
8F	8f	8f	16aa
.	.	.	16ff
8F	8a	8r	16ee
.	.	.	16ff
8G	8g	8f	16bb-
.	.	.	16ff
8G	8b-	8r	16ee
.	.	.	16ff
=14	=14	=14	=14
8A	8a	8f	16ccc
.	.	.	16ff
8A	8cc	8r	16ee
.	.	.	16ff
8B-	8b-	8f	16dd
.	.	.	16ff
8B-	8dd	8r	16ee
.	.	.	16ff
=15	=15	=15	=15
8A	8a	8f	16cc
.	.	.	16ff
8A	8cc	8r	16ee
.	.	.	16ff
8B-	8b-	8f	16dd
.	.	.	16ff
8B-	8dd	8r	16ee
.	.	.	16ff
=16	=16	=16	=16
8A	8a	8f	16cc
.	.	.	16bb-
8B-	8b-	4ff	16aa
.	.	.	16gg
8c	8cc	.	4gg
8C	8c	8ee	.
=17	=17	=17	=17
8F	4f	4ff	4ff
8C	.	.	.
4FF	4r	4r	4r
=18	=18	=18	=18
2r	4.a	4.cc	2r
.	24dd	24ff	.
.	24cc	24ee	.
.	24b-	24dd	.
=19	=19	=19	=19
8r	4a	4cc	8r
8A	.	.	8ff
8A	4r	4r	8ff
8A	.	.	8ff
=20	=20	=20	=20
8B-	2r	2r	24ee
.	.	.	24ff
.	.	.	24gg
8A	.	.	8ff
8G	.	.	8gg
8F	.	.	8aa
=21	=21	=21	=21
8E	2r	2r	24gg
.	.	.	24aa
.	.	.	24bb-
8F	.	.	8aa
4r	.	.	4r
=22	=22	=22	=22
2r	4.a	4.cc	2r
.	24dd	24ff	.
.	24cc	24ee	.
.	24b-	24dd	.
=23	=23	=23	=23
8r	4a	4cc	8r
8A	.	.	8cc
8A	4r	4r	8cc
8A	.	.	8cc
=24	=24	=24	=24
8B-	8b-	8dd	24dd
.	.	.	24ee
.	.	.	24ff
8F	8f	8a	8a
8G	8g	8b-	24b-
.	.	.	24cc
.	.	.	24dd
8E	8c	8g	8g
=25	=25	=25	=25
8F	8c	8a	24a
.	.	.	24b-
.	.	.	24cc
8d	8d	4f	8f
8B-	8B-	.	4g
8c	8c	8e	.
=26	=26	=26	=26
4F	4f	4f	16f
.	.	.	16c
.	.	.	16A
.	.	.	16c
4FF	4F	4f 4a	16f
.	.	.	16c
.	.	.	16A
.	.	.	16c
=27	=27	=27	=27
4FF	4F	4a 4f	4f
4r	4r	4r	4r
=28	=28	=28	=28
8F	4.a	4.cc	2r
8F	.	.	.
8F	.	.	.
8F	24b-	24dd	.
.	24a	24cc	.
.	24g	24b-	.
=29	=29	=29	=29
8F	8f	8a	2r
8F	8g	8b-	.
8F	8a	8cc	.
8F	8b-	8dd	.
=30	=30	=30	=30
8F	8cc	8ee-	2aa
8F	8a	8cc	.
8F	8cc	8ee-	.
8F	8a	8cc	.
=31	=31	=31	=31
4F	8cc	8ee-	16aa
.	.	.	16bb-
.	8a	8cc	16aa
.	.	.	16bb-
4r	4r	4r	16ccc
.	.	.	16aa
.	.	.	16ff
.	.	.	16ee-
=32	=32	=32	=32
8F	4.b-	4.dd	4dd
8F	.	.	.
8F	.	.	4r
8F	24cc	24ee-	.
.	24b-	24dd	.
.	24a	24cc	.
=33	=33	=33	=33
8F	8b-	8b-	2r
8F	8a	8cc	.
8F	8b-	8dd	.
8F	8cc	8ee-	.
=34	=34	=34	=34
8F	8dd	8ff	2bb-
8F	8b-	8dd	.
8F	8dd	8ff	.
8F	8b-	8dd	.
=35	=35	=35	=35
4F	8dd	8ff	16bb-
.	.	.	16aa
.	8b-	8dd	16bb-
.	.	.	16ccc
4r	4r	4r	16ddd
.	.	.	16ff
.	.	.	16ee-
.	.	.	16dd
=36	=36	=36	=36
8F	4.cc	4.ee-	4ee-
8F	.	.	.
8F	.	.	4r
8F	24dd	24ff	.
.	24cc	24ee-	.
.	24b-	24dd	.
=37	=37	=37	=37
4F	4a	4cc	16f
.	.	.	16ee-
.	.	.	16dd
.	.	.	16ee-
4r	4r	4r	16ccc
.	.	.	16ee-
.	.	.	16dd
.	.	.	16cc
=38	=38	=38	=38
8F	4.f	4.dd	4dd
8F	.	.	.
8F	.	.	4r
8F	24g	24ee-	.
.	24f	24dd	.
.	24e-	24cc	.
=39	=39	=39	=39
4F	4d	4b-	16f
.	.	.	16dd
.	.	.	16cc
.	.	.	16dd
4r	4r	4r	16bb-
.	.	.	16dd
.	.	.	16cc
.	.	.	16b-
=40	=40	=40	=40
8F	8f	16f	16a
.	.	16g	16b-
8F	8f	16a	16cc
.	.	16b-	16dd
8F	8f	8cc	16ee-
.	.	.	16cc
8F	8f	8b-	16dd
.	.	.	16b-
=41	=41	=41	=41
4FF	4F	4a	4cc
4r	4r	4r	4r
=42	=42	=42	=42
8B-	8b-	4.dd	4.ff
8B-	8b-	.	.
8B-	8b-	.	.
8B-	8b-	24ee-	24gg
.	.	24dd	24ff
.	.	24cc	24ee-
=43	=43	=43	=43
8B-	8b-	4.b-	4.dd
8B-	8b-	.	.
8B-	8b-	.	.
8B-	8b-	24g	24ee-
.	.	24f	24dd
.	.	24e-	24cc
=44	=44	=44	=44
4B-	4b-	8d	8b-
.	.	8c	8a
4r	4r	8d	8b-
.	.	8e-	8cc
=45	=45	=45	=45
4B-	4b-	8f	8dd
.	.	8g	8ee-
4r	4r	8f	8dd
.	.	8e-	8cc
=46	=46	=46	=46
4B-	4b-	8d	8b-
.	.	8f	8a
4r	4r	8e-	8g
.	.	8d	8f
=47	=47	=47	=47
8F	8f	8c	8e-
8B-	8b-	8B-	8d
4r	4r	4r	4r
=48	=48	=48	=48
8BB-	4.ee-	4.gg	2r
8BB-	.	.	.
8BB-	.	.	.
8BB-	24ff	24aa-	.
.	24ee-	24gg	.
.	24dd	24ff	.
=49	=49	=49	=49
4BB-	4ee-	4gg	16e-
.	.	.	16g
.	.	.	16b-
.	.	.	16ee-
4r	4r	4r	16gg
.	.	.	16ee-
.	.	.	16dd
.	.	.	16ee-
=50	=50	=50	=50
8BB-	4.dd	4.ff	4ff
8BB-	.	.	.
8BB-	.	.	4r
8BB-	24ee-	24gg	.
.	24dd	24ff	.
.	24cc	24ee-	.
=51	=51	=51	=51
4BB-	4b-	4dd	16b-
.	.	.	16dd
.	.	.	16ff
.	.	.	16bb-
4r	4r	4r	16ddd
.	.	.	16bb-
.	.	.	16ff
.	.	.	16dd
=52	=52	=52	=52
8F	4.cc	4.ee-	4ee-
8F	.	.	.
8F	.	.	4r
8F	24dd	24ff	.
.	24cc	24ee-	.
.	24b-	24dd	.
=53	=53	=53	=53
4FF	4a	4cc	16A
.	.	.	16c
.	.	.	16f
.	.	.	16a
4r	4r	4r	16cc
.	.	.	16ee-
.	.	.	16dd
.	.	.	16cc
=54	=54	=54	=54
8BB-	8B-	8B-	16dd
.	.	.	16b-
8BB-	8d	8r	16a
.	.	.	16b-
8C	8c	8B-	16ee-
.	.	.	16b-
8C	8e-	8r	16a
.	.	.	16b-
=55	=55	=55	=55
8D	8d	8B-	16ff
.	.	.	16b-
8D	8f	8r	16a
.	.	.	16b-
8E-	8e-	8B-	16gg
.	.	.	16b-
8E-	8g	8r	16a
.	.	.	16b-
=56	=56	=56	=56
8D	8d	8B-	16ff
.	.	.	16b-
8D	8f	8r	16a
.	.	.	16b-
8E-	8e-	8B-	16gg
.	.	.	16b-
8E-	8g	8r	16a
.	.	.	16b-
=57	=57	=57	=57
8D	8d	8B-	16ff
.	.	.	16dd
8E-	8e-	4b-	16cc
.	.	.	16b-
8F	8f	.	4cc
8FF	8F	8a	.
=58	=58	=58	=58
8BB-	4B-	4b-	4b-
8FF	.	.	.
4BB-	4r	4r	4r
=59	=59	=59	=59
2r	4.d	4.f	2r
.	24g	24b-	.
.	24f	24a	.
.	24e-	24g	.
=60	=60	=60	=60
8r	4d	4f	8r
8D	.	.	8b-
8D	4r	4r	8b-
8D	.	.	8b-
=61	=61	=61	=61
8E-	2r	2r	24a
.	.	.	24b-
.	.	.	24cc
8D	.	.	8b-
8C	.	.	8cc
8BB-	.	.	8dd
=62	=62	=62	=62
8AA	2r	2r	24cc
.	.	.	24dd
.	.	.	24ee-
8BB-	.	.	8dd
4r	.	.	4r
=63	=63	=63	=63
2r	4.d	4.f	2r
.	24g	24b-	.
.	24f	24a	.
.	24e-	24g	.
=64	=64	=64	=64
8r	4d	4f	8r
8d	.	.	8ff
8d	4r	4r	8ff
8d	.	.	8ff
=65	=65	=65	=65
8e-	8ee-	8gg	24gg
.	.	.	24aa
.	.	.	24bb-
8B-	8b-	8dd	8dd
8c	8cc	8ee-	24ee-
.	.	.	24ff
.	.	.	24gg
8A	8f	8cc	8cc
=66	=66	=66	=66
8B-	8f	8dd	24dd
.	.	.	24ee-
.	.	.	24ff
8G	8g	4b-	8b-
8E-	8e-	.	4cc
8F	8f	8a	.
=67	=67	=67	=67
4BB-	4B-	4b-	16b-
.	.	.	16f
.	.	.	16d
.	.	.	16f
4BB-	4B-	4b- 4d	16b-
.	.	.	16f
.	.	.	16d
.	.	.	16f
=68	=68	=68	=68
4BB-	4B-	4b- 4d	4b-
4r	4r	4r	4r
==	==	==	==
*-	*-	*-	*-
!!!RWG1: This file contains only pitch and duration data.
!!!RWG2: Transposing instruments are not transposed.
!!!RWG3: Spines may have incompatible meters.
!!!RWG4: Durations of rests and tied notes may be interpreted.
!!!RWG: Key is interpreted using the Humdrum key tool.
!!!GTL: 10 Divertimentos
!!!OPT: La chasse
!!!AFT: stage1
!!!END: 1997/04/15
!!!KEY: 3324620629
!!!EMD: Converted from MuseData to Humdrum Dec 16, 2000, by Andreas Kornstaedt using muse2kern.
!!!EMD: Manual editing by Craig Sapp, Nov 2001
